src/main/resources/icons/JavaScriptLanguageIcons/icons/typescript/CompileTypeScript.svg

<svg xmlns="http://www.w3.org/2000/svg" width="16" height="16" viewBox="0 0 16 16">
  <g fill="none" fill-rule="evenodd">
    <path fill="#59A869" d="M11.5888765,0.885512934 L11.588193,0.882969544 L14.0351517,3.16277884 L13.4644242,3.72015188 L12.2713304,3.29429369 L9.80566451,3.26144942 L9.80566451,7.72464123 L10.3057072,8.34015177 L10.3057072,15.7201519 L6.80540831,15.7201519 L6.80540831,8.33917044 L7.30545101,7.72015188 L7.30545101,3.24317702 L6.81758586,3.57940481 L6.45607428,3.72015188 L3.80515211,3.72015188 L3.80515211,0.720151883 L6.31214109,0.720151883 L6.78715064,0.946064007 C6.87649899,0.809997651 7.03045713,0.720151883 7.20539987,0.720151883 L11.2057842,0.720151883 L11.5888765,0.885512934 Z" transform="rotate(-45 8.92 8.22)"/>
    <path fill="#6E6E6E" d="M2,10 L1,10 L1,11 L2,11 L2,15 L3,15 L3,11 L4,11 L4,10 L3,10 L2,10 Z M0,9 L9,9 L9,16 L0,16 L0,9 Z M5,10 L5,11 L8,11 L8,10 L5,10 Z M5,11 L5,12 L6,12 L6,11 L5,11 Z M6,12 L6,13 L7,13 L7,12 L6,12 Z M7,13 L7,14 L8,14 L8,13 L7,13 Z M5,14 L5,15 L8,15 L8,14 L5,14 Z"/>
  </g>
</svg>

<svg xmlns="http://www.w3.org/2000/svg" width="16" height="16" viewBox="0 0 16 16"><rect id="frame" width="16" height="16" fill="none"/><g fill="none" fill-rule="evenodd"><path fill="#59A869" d="M5.62 1.147l-.001-.002 3.342-.118-.01.798-1.144.542-1.767 1.72 3.156 3.156.789.082 5.218 5.219-2.475 2.475-5.219-5.22-.084-.79-3.166-3.166-.107.582-.156.355L2.12 8.655.001 6.534 1.772 4.76l.495-.176a.5.5 0 0 1 .136-.456l2.83-2.828.387-.154z"/><path fill="#6E6E6E" d="M2 10H1v1h1v4h1v-4h1v-1H2zM0 9h9v7H0V9zm5 1v1h3v-1H5zm0 1v1h1v-1H5zm1 1v1h1v-1H6zm1 1v1h1v-1H7zm-2 1v1h3v-1H5z"/></g></svg>
